X:55(2)
T:Christy Barry's Set #2
M:6/8
L:1/8
K:G
"G"DEG EDB|DEG "C".B.B.B|"G"DEG B2 e|"D"dBe dBA|"G"DEG EDB|DEG "C"B{c}B{A}B|!
|1"G"dB/^c/d gfe|"C"dBA "G"G{A}G{F}G :|2 "G"d2 d gfe|"C"dBa "G"g{a}g{f}g||!
|:"G"gab age|deg "C".B.B.B|"G"gab gab|"D"dBd e2 d|!
|1"G"gab age|deg "C"B{c}B{A}B|"G"dBd gfe|"C"dba "G"g{a}g{f}g:|!
|2"G"g2 b age|deg "D"B{c}B{A}B|"G"dBd gfe|"C"dBA "G".G.G.G||

